X:1
T:Title
%%score { ( 1 3 ) | ( 2 4 ) }
L:1/8
Q:1/4=100
M:6/8
K:Ab
V:1 treble nm="Grand Piano"
V:3 treble 
V:2 bass 
V:4 bass 
V:1
 [Ec][Fd][Ec] [DB]2 [DF] | [DG][DA][DB] [CE]3 | [DF][FA][Af] [Ae]2 [Ec] | [=DB]cB B2 _c | %4
w: Florence~W.~Williams * * * *||||
 [Ec][Fd][Ec] [DB]2 [DF] | [DG][DA][DB] [CE]3 | [_Ge][Gf][Ge] [Fe]2 [Fd] | [Ec][Fd][DG] [CA]3 | %8
w: ||||
 E3 c3 | =D3 B3 | z B,G z Gc | B3 A3 | f3 e3 | d3 c3 | .B3 .A3 | B3 e3 | d3 z3 | %17
w: |||||||||
 B6[K:bass][K:treble] | c3 z3 | A6[K:bass] | E2 E[K:treble] F2 F | G G2 [Ge]2 [B,DG] | A6- | A6 |] %24
w: |||||||
V:2
 A,,A,A, E,,E,E, | E,,E,E, A,,A,A, | D,A,A, C,A,A, | B,,[A,=D][A,D] [E,G,_D]3 | A,,A,A, E,,E,E, | %5
 E,,E,E, A,,A,A, | C,A,A, D,DD | E,E,[E,,E,] [A,,E,]3 | A,,[E,A,][E,A,] E,,[E,A,][E,A,] | %9
 B,,[F,A,][F,A,] B,,[F,A,B,][F,A,B,] | z G,B, z[K:treble] D[EG] | z DD z CC | %12
 z[K:treble] FF[K:bass] z EE | z EE z EE | B,,[A,B,][A,B,=D] B,,[A,B,][A,B,D] | %15
 E,,[E,G,][E,G,] [E,G,D][E,G,][E,G,] | B,,[E,G,][E,G,] E,,[E,G,D][E,G,D] | %17
 G,,[E,G,][E,G,] z [E,G,][E,G,] | A,,[E,A,][E,A,] E,,[E,A,C][E,A,C] | %19
 A,,[E,A,][E,A,] z [E,A,][E,A,] | [E,G,D]2 [E,G,D] [E,A,D]2 [E,A,D] | [E,B,D] [E,B,D]2 [E,D]2 E, | %22
 z3 F,2 F, | E,6 |] %24
V:3
 x6 | x6 | x6 | x6 | x6 | x6 | x6 | x6 | z CC z CC | z B,B, z =DD | .D3 .B3 | z GG z EE | %12
 z AA z AA | z GG z AA | z =Dc z Dc | z DD z DD | z DD def | z DD[K:bass] E,,D[K:treble]D | %18
 z CC cde | z CC[K:bass] E,,CC | x3[K:treble] x3 | x6 | [A,C]3 D2 D | C6 |] %24
V:4
 x6 | x6 | x6 | x6 | x6 | x6 | x6 | x6 | x6 | x6 | [E,,E,]3 [E,,E,]3[K:treble] | [A,,A,]6 | %12
 [D,D]3[K:treble][K:bass] [C,C]3 | [B,,B,]3 [A,,A,]3 | x6 | x6 | x6 | x6 | x6 | x6 | x6 | x6 | %22
 A,,6- | A,,6 |] %24

